_inc/images/systems/logos/auto-pinball.svg

<svg viewBox="0 0 200 40" xmlns="http://www.w3.org/2000/svg">
    <path d="M56.29 23.162h-3.689l-.773 4.511h-5.651L49.449 9h8.923c3.371 0 5.057 1.574 5.057 4.721 0 1.493-.208 2.841-.624 4.043-.417 1.208-.876 2.168-1.379 2.878-.509.704-1.206 1.302-2.092 1.792-.88.486-1.893.728-3.044.728Zm-.744-9.382h-1.309l-.803 4.601h1.309c.674 0 1.183-.073 1.527-.219.35-.152.575-.498.674-1.035.258-1.474.387-2.28.387-2.421 0-.378-.149-.627-.446-.747-.297-.119-.744-.179-1.339-.179Zm13.089 13.893h-5.652L66.255 9h5.651l-3.271 18.673Zm19.215 0h-5.324l-3.035-6.633c-.078-.139-.118-.335-.118-.587 0-.246.019-.528.059-.847h-.238l-1.398 8.067h-5.652L75.417 9h5.324l3.034 6.632c.06.14.089.336.089.588 0 .246-.02.528-.059.847h.237L85.471 9h5.651L87.85 27.673Zm13.951 0H91.627L94.9 9h9.161c1.429 0 2.463.249 3.104.747.647.498.972 1.264.972 2.301 0 1.513-.335 2.758-1.002 3.734-.661.976-1.467 1.584-2.419 1.822l-.03.18c1.785.338 2.678 1.524 2.678 3.555 0 1.793-.487 3.296-1.459 4.511-.971 1.216-2.339 1.823-4.104 1.823Zm-1.011-7.439h-2.231l-.536 3.047h2.202c.496 0 .872-.199 1.13-.598.257-.398.386-.906.386-1.523 0-.618-.317-.926-.951-.926Zm.833-7.14h-1.786l-.505 2.778h1.755c.912 0 1.368-.648 1.368-1.942 0-.558-.277-.836-.832-.836Zm12.582 11.621-1.161 2.958h-5.948L114.919 9h8.745l1.309 18.673h-5.979l-.119-2.958h-4.67Zm4.224-9.978h-.298l-2.082 5.228h2.38v-5.228Zm20.643 8.155-.833 4.781h-11.303L130.208 9h5.652l-2.439 13.892h5.651Zm12.672 0-.833 4.781h-11.304L142.88 9h5.652l-2.44 13.892h5.652Z" style="white-space:pre;fill:#fff"/>
    <path d="M52.629 30.984c-.223-.033-.358-.068-1.56-.414-4.013-1.15-8.571-2.539-10.45-3.186-1.193-.41-1.498-.538-1.895-.805a3.634 3.634 0 0 1-.653-.537 4.146 4.146 0 0 1-1.167-2.272c-.033-.192-.034-.206-.034-.656 0-.381.004-.481.022-.6a4.185 4.185 0 0 1 .855-1.971 5.5 5.5 0 0 1 .596-.616 4.167 4.167 0 0 1 2.197-.946c.231-.029.683-.029.915 0 .494.06.924.189 1.367.411.407.203 1.066.642 2.363 1.571 1.79 1.284 5.078 3.754 7.548 5.671l.458.356.444.348c.71.559 1.118 1.133 1.232 1.734.03.15.03.418.001.562-.04.207-.124.403-.241.571a2.438 2.438 0 0 1-.462.457c-.259.17-.537.275-.852.32a3.474 3.474 0 0 1-.684.002Zm-11.278-6.415a1.515 1.515 0 0 0 1.018-.887 1.498 1.498 0 0 0-1.464-2.068 1.5 1.5 0 0 0-1.404 1.44 1.512 1.512 0 0 0 1.283 1.548c.02.002.131.003.243.001.177-.003.224-.008.324-.034Zm76.293-3.588a4.936 4.936 0 0 1-1.108-.25 4.59 4.59 0 0 1-2.779-2.863 4.563 4.563 0 0 1 2.245-5.498 4.517 4.517 0 0 1 4.697.34c.217.156.38.296.584.502a4.55 4.55 0 0 1 1.299 2.637c.026.197.037.769.019.98a4.593 4.593 0 0 1-1.913 3.333 4.576 4.576 0 0 1-2.208.82c-.161.013-.68.013-.836-.001Zm-1.994-2.836a4.014 4.014 0 0 1-.132-.547 4.418 4.418 0 0 1 0-.845c.117-.766.449-1.42.988-1.948a3.322 3.322 0 0 1 1.941-.941 4.01 4.01 0 0 1 .783.007c.175.027.402.081.545.131a.61.61 0 0 0 .116.032c.007-.009-.174-.14-.286-.209a3.005 3.005 0 0 0-1.174-.406 4.19 4.19 0 0 0-.726.002 3.048 3.048 0 0 0-2.157 1.353 4.03 4.03 0 0 0-.321.64 3.01 3.01 0 0 0 .311 2.659c.053.081.14.193.144.187a.611.611 0 0 0-.032-.115Z" style="fill:#ccc"/>
    <path d="M160.87 18.975c-.224.033-.359.069-1.561.414-4.013 1.149-8.57 2.54-10.45 3.186-1.193.41-1.497.539-1.896.805a3.788 3.788 0 0 0-.652.537c-.624.626-1.007 1.375-1.167 2.272-.032.192-.033.207-.033.656 0 .381.003.482.022.6.112.732.392 1.374.854 1.971.125.161.437.484.597.617a4.176 4.176 0 0 0 2.196.946c.231.028.683.028.915 0 .494-.06.924-.19 1.368-.412.406-.203 1.066-.641 2.362-1.571 1.79-1.284 5.078-3.754 7.548-5.671l.458-.356.444-.347c.71-.56 1.119-1.133 1.233-1.735.029-.15.029-.417.001-.562a1.519 1.519 0 0 0-.241-.571 2.438 2.438 0 0 0-.462-.457 2.066 2.066 0 0 0-.852-.321 3.553 3.553 0 0 0-.684-.001Zm-11.279 6.416c.47.127.827.438 1.018.887.24.556.096 1.227-.35 1.653-.296.28-.73.443-1.113.414a1.5 1.5 0 0 1-1.404-1.44 1.508 1.508 0 0 1 1.282-1.547c.021-.003.131-.004.244-.002.177.003.224.008.323.035Z" style="fill:#ccc" transform="rotate(180 154.12 24.98)"/>
</svg>

<?xml version="1.0" encoding="utf-8"?>
<svg viewBox="0 0 200 40" xmlns="http://www.w3.org/2000/svg">
  <path d="M 56.29 23.162 L 56.29 23.162 L 52.601 23.162 L 51.828 27.673 L 46.177 27.673 L 49.449 9 L 58.372 9 L 58.372 9 C 61.743 9 63.429 10.574 63.429 13.721 L 63.429 13.721 L 63.429 13.721 C 63.429 15.214 63.221 16.562 62.805 17.764 L 62.805 17.764 L 62.805 17.764 C 62.388 18.972 61.929 19.932 61.426 20.642 L 61.426 20.642 L 61.426 20.642 C 60.917 21.346 60.22 21.944 59.334 22.434 L 59.334 22.434 L 59.334 22.434 C 58.454 22.92 57.441 23.162 56.29 23.162 Z M 55.546 13.78 L 54.237 13.78 L 53.434 18.381 L 54.743 18.381 L 54.743 18.381 C 55.417 18.381 55.926 18.308 56.27 18.162 L 56.27 18.162 L 56.27 18.162 C 56.62 18.01 56.845 17.664 56.944 17.127 L 56.944 17.127 L 56.944 17.127 C 57.202 15.653 57.331 14.847 57.331 14.706 L 57.331 14.706 L 57.331 14.706 C 57.331 14.328 57.182 14.079 56.885 13.959 L 56.885 13.959 L 56.885 13.959 C 56.588 13.84 56.141 13.78 55.546 13.78 L 55.546 13.78 Z M 68.635 27.673 L 62.983 27.673 L 66.255 9 L 71.906 9 L 68.635 27.673 Z M 87.85 27.673 L 82.526 27.673 L 79.491 21.04 L 79.491 21.04 C 79.413 20.901 79.373 20.705 79.373 20.453 L 79.373 20.453 L 79.373 20.453 C 79.373 20.207 79.392 19.925 79.432 19.606 L 79.432 19.606 L 79.194 19.606 L 77.796 27.673 L 72.144 27.673 L 75.417 9 L 80.741 9 L 83.775 15.632 L 83.775 15.632 C 83.835 15.772 83.864 15.968 83.864 16.22 L 83.864 16.22 L 83.864 16.22 C 83.864 16.466 83.844 16.748 83.805 17.067 L 83.805 17.067 L 84.042 17.067 L 85.471 9 L 91.122 9 L 87.85 27.673 Z M 101.801 27.673 L 91.627 27.673 L 94.9 9 L 104.061 9 L 104.061 9 C 105.49 9 106.524 9.249 107.165 9.747 L 107.165 9.747 L 107.165 9.747 C 107.812 10.245 108.137 11.011 108.137 12.048 L 108.137 12.048 L 108.137 12.048 C 108.137 13.561 107.802 14.806 107.135 15.782 L 107.135 15.782 L 107.135 15.782 C 106.474 16.758 105.668 17.366 104.716 17.604 L 104.716 17.604 L 104.686 17.784 L 104.686 17.784 C 106.471 18.122 107.364 19.308 107.364 21.339 L 107.364 21.339 L 107.364 21.339 C 107.364 23.132 106.877 24.635 105.905 25.85 L 105.905 25.85 L 105.905 25.85 C 104.934 27.066 103.566 27.673 101.801 27.673 L 101.801 27.673 Z M 100.79 20.234 L 100.79 20.234 L 98.559 20.234 L 98.023 23.281 L 100.225 23.281 L 100.225 23.281 C 100.721 23.281 101.097 23.082 101.355 22.683 L 101.355 22.683 L 101.355 22.683 C 101.612 22.285 101.741 21.777 101.741 21.16 L 101.741 21.16 L 101.741 21.16 C 101.741 20.542 101.424 20.234 100.79 20.234 Z M 101.623 13.094 L 101.623 13.094 L 99.837 13.094 L 99.332 15.872 L 101.087 15.872 L 101.087 15.872 C 101.999 15.872 102.455 15.224 102.455 13.93 L 102.455 13.93 L 102.455 13.93 C 102.455 13.372 102.178 13.094 101.623 13.094 Z M 114.205 24.715 L 113.044 27.673 L 107.096 27.673 L 114.919 9 L 123.664 9 L 124.973 27.673 L 118.994 27.673 L 118.875 24.715 L 114.205 24.715 Z M 118.429 14.737 L 118.131 14.737 L 116.049 19.965 L 118.429 19.965 L 118.429 14.737 Z M 139.072 22.892 L 138.239 27.673 L 126.936 27.673 L 130.208 9 L 135.86 9 L 133.421 22.892 L 139.072 22.892 Z M 151.744 22.892 L 150.911 27.673 L 139.607 27.673 L 142.88 9 L 148.532 9 L 146.092 22.892 L 151.744 22.892 Z" style="white-space: pre; fill: rgb(255, 255, 255);"/>
  <path d="M 52.629 30.984 C 52.406 30.951 52.271 30.916 51.069 30.57 C 47.056 29.42 42.498 28.031 40.619 27.384 C 39.426 26.974 39.121 26.846 38.724 26.579 C 38.457 26.403 38.294 26.267 38.071 26.042 C 37.448 25.417 37.063 24.668 36.904 23.77 C 36.871 23.578 36.87 23.564 36.87 23.114 C 36.87 22.733 36.874 22.633 36.892 22.514 C 37.005 21.782 37.285 21.14 37.747 20.543 C 37.872 20.382 38.184 20.059 38.343 19.927 C 38.976 19.4 39.721 19.079 40.54 18.981 C 40.771 18.952 41.223 18.952 41.455 18.981 C 41.949 19.041 42.379 19.17 42.822 19.392 C 43.229 19.595 43.888 20.034 45.185 20.963 C 46.975 22.247 50.263 24.717 52.733 26.634 C 52.88 26.749 53.086 26.909 53.191 26.99 C 53.294 27.07 53.495 27.227 53.635 27.338 C 54.345 27.897 54.753 28.471 54.867 29.072 C 54.897 29.222 54.897 29.49 54.868 29.634 C 54.828 29.841 54.744 30.037 54.627 30.205 C 54.539 30.333 54.292 30.577 54.165 30.662 C 53.906 30.832 53.628 30.937 53.313 30.982 C 53.148 31.005 52.794 31.006 52.629 30.984 Z M 41.351 24.569 C 41.819 24.441 42.178 24.13 42.369 23.682 C 42.608 23.126 42.464 22.454 42.018 22.028 C 41.723 21.747 41.288 21.585 40.905 21.614 C 40.128 21.671 39.533 22.282 39.501 23.054 C 39.471 23.818 40.022 24.481 40.784 24.602 C 40.804 24.604 40.915 24.605 41.027 24.603 C 41.204 24.6 41.251 24.595 41.351 24.569 Z" style="fill: rgb(204, 204, 204);"/>
  <path d="M 117.644 20.981 C 117.299 20.948 116.865 20.85 116.536 20.731 C 115.224 20.252 114.196 19.194 113.757 17.868 C 113.422 16.858 113.45 15.75 113.839 14.767 C 114.069 14.186 114.382 13.704 114.82 13.249 C 115.182 12.878 115.55 12.604 116.002 12.37 C 117.502 11.593 119.322 11.725 120.699 12.71 C 120.916 12.866 121.079 13.006 121.283 13.212 C 121.999 13.93 122.442 14.828 122.582 15.849 C 122.608 16.046 122.619 16.618 122.601 16.829 C 122.48 18.169 121.788 19.373 120.688 20.162 C 120.05 20.618 119.262 20.911 118.48 20.982 C 118.319 20.995 117.8 20.995 117.644 20.981 Z M 115.65 18.145 C 115.6 17.996 115.546 17.768 115.518 17.598 C 115.491 17.408 115.491 16.947 115.518 16.753 C 115.635 15.987 115.967 15.333 116.506 14.805 C 117.047 14.276 117.701 13.959 118.447 13.864 C 118.631 13.84 119.055 13.844 119.23 13.871 C 119.405 13.898 119.632 13.952 119.775 14.002 C 119.837 14.022 119.887 14.037 119.891 14.034 C 119.898 14.025 119.717 13.894 119.605 13.825 C 119.255 13.612 118.865 13.478 118.431 13.419 C 118.278 13.399 117.854 13.399 117.705 13.421 C 116.809 13.545 116.044 14.024 115.548 14.774 C 115.45 14.92 115.29 15.243 115.227 15.414 C 114.908 16.29 115.025 17.29 115.538 18.073 C 115.591 18.154 115.678 18.266 115.682 18.26 C 115.685 18.257 115.67 18.206 115.65 18.145 Z" style="fill: rgb(204, 204, 204);"/>
  <path d="M 160.87 18.975 C 160.646 19.008 160.511 19.044 159.309 19.389 C 155.296 20.538 150.739 21.929 148.859 22.575 C 147.666 22.985 147.362 23.114 146.963 23.38 C 146.698 23.557 146.534 23.693 146.311 23.917 C 145.687 24.543 145.304 25.292 145.144 26.189 C 145.112 26.381 145.111 26.396 145.111 26.845 C 145.111 27.226 145.114 27.327 145.133 27.445 C 145.245 28.177 145.525 28.819 145.987 29.416 C 146.112 29.577 146.424 29.9 146.584 30.033 C 147.216 30.559 147.961 30.88 148.78 30.979 C 149.011 31.007 149.463 31.007 149.695 30.979 C 150.189 30.919 150.619 30.789 151.063 30.567 C 151.469 30.364 152.129 29.926 153.425 28.996 C 155.215 27.712 158.503 25.242 160.973 23.325 C 161.12 23.21 161.327 23.05 161.431 22.969 C 161.534 22.889 161.735 22.732 161.875 22.622 C 162.585 22.062 162.994 21.489 163.108 20.887 C 163.137 20.737 163.137 20.47 163.109 20.325 C 163.068 20.118 162.985 19.922 162.868 19.754 C 162.78 19.626 162.533 19.382 162.406 19.297 C 162.147 19.127 161.868 19.022 161.554 18.976 C 161.388 18.954 161.034 18.953 160.87 18.975 Z M 149.591 25.391 C 150.061 25.518 150.418 25.829 150.609 26.278 C 150.849 26.834 150.705 27.505 150.259 27.931 C 149.963 28.211 149.529 28.374 149.146 28.345 C 148.369 28.287 147.773 27.677 147.742 26.905 C 147.711 26.141 148.261 25.478 149.024 25.358 C 149.045 25.355 149.155 25.354 149.268 25.356 C 149.445 25.359 149.492 25.364 149.591 25.391 Z" style="fill: rgb(204, 204, 204);" transform="matrix(-1, 0, 0, -1, 308.24086, 49.958992)"/>
</svg>
